!!! OTL: Berkowitz582
!!! Chapter: 1
!!! Section: V
!!! Page: 147
!!! Mode: 
!!! Encoder: CD
**kern
*staff1
=1-
*clefG2
*k[]
*C:
*M3/8
8.b/L
16g#/k
8f/J
=2
8.d/L
16f/k
8g#/J
=3
[4.b\
=4
8b/L]
8r
8a#/J
=5
8cc#/L
16b/L
16a/
16g/
16f/JJ
=6
8g#/L
8e/
8g#/J
=7
8cc#\L
16dd\L
16ccn\
16b-\
16a-\JJ
=8
8b/L
8g/
8e-/J
=9
!!linebreak:original
8.e/L
16g/k
8b-/J
=10
8.d#/L
16f#/k
8a/J
=11
8d/L
16d/L
16c#/
16d/
16f/JJ
=12
8.c/L
16e/k
8g#/J
=13
8b/L
8g/
8e-/J
=14
8e/L
8c/
8a/J
=15
4.e/
==
*-
